X: 143
T: Nan cao
%%abc-version 2.0
%%abcx-abcm2ps-target-version 5.9.1 (29 Sep 2008)
%%abc-creator hum2abc beta
%%abcx-conversion-date 2013/10/02 07:52:29
%%abc-edited-by Helmut Schaffrath
%%humdrum-veritas 351722566
%%humdrum-veritas-data 640809030
%%continueall 1
%%barnumbers 0
L: 1/8
M: 2/4
K: Eb
B2A G [I:setbarnb 1]| 
F4 | 
zc2e | 
B2C2 | 
B,4 | 
G2z c- | 
c B G F | 
G4 | 
B4 | 
G A G F | 
G A G F | 
E CE2- | 
E2G F | 
E2F2- | 
F2F G | 
B3e | 
c BB,2- | 
B,> CE2- | 
E D/ C/B,2- | 
B,2E2- | 
E4 | 
G AE2 | 
G FE2 | 
E CE2- | 
E2F G | 
F GB,2- | 
B, CE2- | 
E D/ C/B,2 | 
B2G2 | 
zc2B | 
G FG2- | 
G2B2- | 
B2G A | 
G F G A | 
G F E C | 
E4 | 
G FE2 | 
F4 | 
F GB2 | 
z e c B | 
B3C | 
E3D/ C/ | 
B,4 | 
E4 | 
G A G F | 
E3C | 
E4 | 
F G F G | 
B,3C | 
E3D/ C/ | 
B,4 |]  



